X: 646
T: Ademar O'Connor's
R: polka
M: 2/4
K: Amajor
|:EA A/c/A/F/|EA A/c/A/F/|EA Ac|Bc/B/ A>F|
EA A/c/A/F/|EA A>F|Ee cA|1 Bc/B/ A>F:|2 Bc/B/ A>B||
ce eA|ce eA|ce ec|Bc/B/ A>B|
ce eA|ce e2|EF AB|cA A>B|
ce eA|ce eA|ce ec|B2 e>d|
cA BA|FE A>F|Ee c/B/A|Bc/B A>F||

